images/reference/kickstarter.svg

<svg height="228" viewBox="0 0 200 228" width="200" xmlns="http://www.w3.org/2000/svg" xmlns:xlink="http://www.w3.org/1999/xlink"><clipPath id="a"><path d="m1226.38 862.832 153.98 152.958c159.52 158.46 159.52 416.53 0 574.98-159.51 158.45-419.317 158.45-578.833 0l-56.066-55.7c-74.231 105.9-196.633 174.93-336.406 174.93-225.848 0-409.055-181.98-409.055-406.32v-880.903c0-224.343 183.207-406.3239 409.055-406.3239 139.773 0 262.175 69.0274 336.406 174.9219l56.066-55.691c159.516-158.4535 419.323-158.4535 578.833 0 159.52 158.449 159.52 416.523 0 574.972z"/></clipPath><clipPath id="b"><path d="m0 0h1500v1710h-1500z"/></clipPath><g clip-path="url(#a)" transform="matrix(.13333333 0 0 -.13333333 0 228)"><g clip-path="url(#b)"><path d="m0 0h1650v1860h-1650z" fill="#044651"/></g></g></svg>

<?xml version="1.0" encoding="UTF-8" standalone="no"?>
<!-- Created with Inkscape (http://www.inkscape.org/) -->

<svg
   xmlns:dc="http://purl.org/dc/elements/1.1/"
   xmlns:cc="http://creativecommons.org/ns#"
   xmlns:rdf="http://www.w3.org/1999/02/22-rdf-syntax-ns#"
   xmlns:svg="http://www.w3.org/2000/svg"
   xmlns="http://www.w3.org/2000/svg"
   xmlns:sodipodi="http://sodipodi.sourceforge.net/DTD/sodipodi-0.dtd"
   xmlns:inkscape="http://www.inkscape.org/namespaces/inkscape"
   version="1.1"
   id="svg29"
   xml:space="preserve"
   width="200"
   height="228"
   viewBox="0 0 200 228"
   sodipodi:docname="kickstarter.svg"
   inkscape:version="0.92.1 r15371"><metadata
     id="metadata35"><rdf:RDF><cc:Work
         rdf:about=""><dc:format>image/svg+xml</dc:format><dc:type
           rdf:resource="http://purl.org/dc/dcmitype/StillImage" /><dc:title></dc:title></cc:Work></rdf:RDF></metadata><defs
     id="defs33"><clipPath
       clipPathUnits="userSpaceOnUse"
       id="clipPath47"><path
         d="m 1226.38,862.832 153.98,152.958 c 159.52,158.46 159.52,416.53 0,574.98 -159.51,158.45 -419.317,158.45 -578.833,0 l -56.066,-55.7 C 671.23,1640.97 548.828,1710 409.055,1710 183.207,1710 0,1528.02 0,1303.68 V 422.777 C 0,198.434 183.207,16.4531 409.055,16.4531 c 139.773,0 262.175,69.0274 336.406,174.9219 l 56.066,-55.691 c 159.516,-158.4535 419.323,-158.4535 578.833,0 159.52,158.449 159.52,416.523 0,574.972 z"
         id="path45"
         inkscape:connector-curvature="0" /></clipPath><clipPath
       clipPathUnits="userSpaceOnUse"
       id="clipPath53"><path
         d="M 0,0 H 1500 V 1710 H 0 Z"
         id="path51"
         inkscape:connector-curvature="0" /></clipPath></defs><sodipodi:namedview
     pagecolor="#ffffff"
     bordercolor="#666666"
     borderopacity="1"
     objecttolerance="10"
     gridtolerance="10"
     guidetolerance="10"
     inkscape:pageopacity="0"
     inkscape:pageshadow="2"
     inkscape:window-width="1366"
     inkscape:window-height="739"
     id="namedview31"
     showgrid="false"
     inkscape:zoom="2.4473684"
     inkscape:cx="100"
     inkscape:cy="114"
     inkscape:window-x="0"
     inkscape:window-y="0"
     inkscape:window-maximized="1"
     inkscape:current-layer="g37" /><g
     id="g37"
     inkscape:groupmode="layer"
     inkscape:label="ink_ext_XXXXXX"
     transform="matrix(1.3333333,0,0,-1.3333333,0,228)"><g
       id="g39"
       transform="scale(0.1)"><g
         id="g41"><g
           id="g43"
           clip-path="url(#clipPath47)"><g
             id="g49"
             clip-path="url(#clipPath53)"><path
               d="M 0,0 H 1650 V 1860 H 0 Z"
               style="fill:#044651;fill-opacity:1;fill-rule:nonzero;stroke:none"
               id="path55"
               inkscape:connector-curvature="0" /></g></g></g></g></g></svg>
